X: 10931
Q: "Allegretto"
M: 6/8
L: 1/8
K: A
(A/B/c).E E>FE | Edc TBAB | (A/B/c).E E>FE | (Ac.B) AF.B |\
(A/B/c).E E>FE | (Edc) d>ef | ecA TB>cd | cd.B (AF).B :|
|:\
(Ac).e (Ac).e | Ace fdB | Ace f>ga | A<cB AFB |\
(Ac).e (Ac).e | Ace efg | aga ecB | AcB AFB :|


